icons/svg/24x24/bookmark add/outline.svg

<svg width="24" height="24" fill="none" xmlns="http://www.w3.org/2000/svg">
  <path fill-rule="evenodd" clip-rule="evenodd" d="M20 6h-3V3a1 1 0 10-2 0v3h-3a1 1 0 100 2h3v3a1 1 0 102 0V8h3a1 1 0 100-2zm-5 8h2v7.767l-6-3.601-6 3.601V5c0-1.654 1.346-3 3-3h5v2H8a1 1 0 00-1 1v13.233l2.971-1.782a1.998 1.998 0 012.057-.001L15 18.233V14z" fill="#000"/>
</svg>

<svg xmlns="http://www.w3.org/2000/svg" width="24" height="24" viewBox="0 0 24 24">
  <path fill-rule="evenodd" d="M20,6 L17,6 L17,3 C17,2.447 16.553,2 16,2 C15.447,2 15,2.447 15,3 L15,6 L12,6 C11.447,6 11,6.447 11,7 C11,7.553 11.447,8 12,8 L15,8 L15,11 C15,11.553 15.447,12 16,12 C16.553,12 17,11.553 17,11 L17,8 L20,8 C20.553,8 21,7.553 21,7 C21,6.447 20.553,6 20,6 L20,6 Z M15,14 L17,14 L17,21.767 L11,18.166 L5,21.767 L5,5 C5,3.346 6.346,2 8,2 L13,2 L13,4 L8,4 C7.448,4 7,4.448 7,5 L7,18.233 L9.971,16.451 C10.605,16.07 11.394,16.071 12.028,16.45 L15,18.233 L15,14 Z"/>
</svg>
